X: 7797
T: Come On Wee Man
R: reel
M: 4/4
K: Emajor
G,CCB, CDEF|FGGE F/F/EFE|FGGF F/F/EFG|AGFE DECB,|
G,CCB, CDEF|FGGE F/F/EFG|AGFE DCB,A,|1 G,4 z C3:|2 G,4 E4|
|:ABBA dcBA|GCCB, CDEG|1 F=CC^C DEFA|G3G2cBc:|2 FEDC B,A,G,F,|G,3G,3G,2||
GccB cdef|fgge f/f/efe|fggf f/f/efg|agfe decB|
GccB cdef|fgge f/f/efg|agfe dcBA|1 G4 z c3:|2 G4 e4|
|:abba d'c'ba|gccB cdeg|1 f=cc^c defa|g3g2c'bc':|2 fedc BAGF|G3G3G2||

